assets/Palm tree/Flat/palm_tree_flat.svg

<svg width="32" height="32" viewBox="0 0 32 32" fill="none" xmlns="http://www.w3.org/2000/svg">
<path d="M19.04 8.85986H13.6V29.9999H19.04V8.85986Z" fill="#6D4534"/>
<path d="M5 8.16C4.44772 8.16 3.99148 7.70913 4.08024 7.16402C4.55684 4.23698 7.09905 2 10.16 2C13.56 2 16.32 4.75 16.32 8.16H5Z" fill="#86D72F"/>
<path d="M16.32 8.16H27.64C28.1923 8.16 28.6485 7.70915 28.5601 7.16398C28.0845 4.23008 25.5418 2 22.48 2C19.08 2 16.32 4.76 16.32 8.16Z" fill="#86D72F"/>
<path d="M15.6356 7.62438C16.0495 7.88718 16.5899 7.88699 17.0034 7.62343C19.3866 6.10431 22.5764 6.38654 24.66 8.4701C26.8202 10.6394 27.036 14.0158 25.3073 16.419C24.9848 16.8673 24.3434 16.8635 23.9529 16.473L17.0271 9.5472C16.6366 9.15668 16.0034 9.15668 15.6129 9.5472L8.68709 16.473C8.29657 16.8635 7.65517 16.8673 7.33202 16.4194C5.59386 14.0104 5.80985 10.6402 7.97999 8.47009C10.0624 6.39634 13.2572 6.11444 15.6356 7.62438Z" fill="#44911B"/>
<path d="M15.55 11.93C15.55 13.1229 14.5829 14.09 13.39 14.09C12.197 14.09 11.23 13.1229 11.23 11.93C11.23 10.7371 12.197 9.77002 13.39 9.77002C14.5829 9.77002 15.55 10.7371 15.55 11.93Z" fill="#D3883E"/>
<path d="M21.41 13.7C21.41 14.8929 20.4429 15.86 19.25 15.86C18.057 15.86 17.09 14.8929 17.09 13.7C17.09 12.5071 18.057 11.54 19.25 11.54C20.4429 11.54 21.41 12.5071 21.41 13.7Z" fill="#D3883E"/>
</svg>

<svg xmlns="http://www.w3.org/2000/svg" width="32" height="32" fill="none"><path fill="#6D4534" d="M19.04 8.86H13.6V30h5.44V8.86Z"/><path fill="#86D72F" d="M5 8.16c-.552 0-1.009-.45-.92-.996A6.165 6.165 0 0 1 10.16 2c3.4 0 6.16 2.75 6.16 6.16H5ZM16.32 8.16h11.32c.552 0 1.008-.45.92-.996A6.157 6.157 0 0 0 22.48 2c-3.4 0-6.16 2.76-6.16 6.16Z"/><path fill="#44911B" d="M15.636 7.624c.413.263.954.263 1.367 0a6.15 6.15 0 0 1 7.657.846 6.173 6.173 0 0 1 .647 7.949c-.322.448-.964.444-1.354.054l-6.926-6.926a1 1 0 0 0-1.414 0l-6.926 6.926c-.39.39-1.032.394-1.355-.054A6.15 6.15 0 0 1 7.98 8.47a6.175 6.175 0 0 1 7.656-.846Z"/><path fill="#D3883E" d="M15.55 11.93a2.16 2.16 0 1 1-4.32 0 2.16 2.16 0 0 1 4.32 0ZM21.41 13.7a2.16 2.16 0 1 1-4.32 0 2.16 2.16 0 0 1 4.32 0Z"/></svg>
